!!!OTL: Graf und Nonne (Die Nonne) Ich stand auf hohen Bergen,
!!!ARE: Europa, Mitteleuropa, Deutschland (BRD), Rheinland - Pfalz, Simmern, Laubach
!!!YOR: 8, S. 46
!!    1895 aufgezeichnet (1891 - 1895)
!!!SCT: Q0155H
!!!YEM: Copyright 1995, estate of Helmut Schaffrath.
**kern
*ICvox
*Ivox
*M6/8
*k[f#]
*G:
{8d
=1
4b
8b
8b
8a
8g
=2
8a
4a
8r}
{8.d
16d
=3
4cc
8cc
4dd
8a
=4
2b
8r}
{8dd
=5
8dd
8cc
8b
8b
8cc
8dd
=6
4.ee
8ee
8dd}
{8b
=7
8dd
8dd
8dd
8dd
8cc
8cc
=8
2b
8r}
{8dd
=9
8dd
8cc
8b
8b
8cc
8dd
=10
4.ee
8ee
8dd}
{8b
=11
8dd
8dd
8dd
8dd
8cc
8cc
=12
2b
8r}
==
!!!AGN: Ballade, Standesunterschied, vergebliche Werbung, Liebe, Klage
!! Pause am Schluss der vierten und letzten Zeile angefuegt.
!!    Eingeklammerte Pausen gespielt.
!!!ONB: ESAC (Essen Associative Code) Database: BALLADE
!!!AMT: compound duple
!!!AIN: vox
!!!EED: Helmut Schaffrath
!!!EEV: 1.0
*-
